data/young-serif.svg

<svg width="83.958" height="19.768" viewBox="0 0 83.958 19.768" xmlns="http://www.w3.org/2000/svg"><path transform="translate(0 14.644) scale(.014 -.014)" d="m769 750q15 0 15-15v-30q0-15-15-15-33 0-64.5-23t-60.5-73l-154-261q-5-7-5-19v-159q0-40 14.5-67.5t52.5-27.5h7q15 0 15-15v-30q0-15-15-15h-308q-15 0-15 15v30q0 15 15 15h6q38 0 53 27.5t15 67.5v154q0 9-6 18l-180 267q-34 50-58 73t-56 23q-15 0-15 15v30q0 15 15 15h347q15 0 15-15v-30q0-15-15-15-27 0-48.5-10.5t-21.5-36.5q0-21 17-49l117-187 108 187q22 40 22 63 0 33-46 33-15 0-15 15v30q0 15 15 15z"/><path transform="translate(11.116 14.644) scale(.014 -.014)" d="m281 513q57 0 105.5-22.5t83.5-61 54.5-86 19.5-98.5q0-74-35-132.5t-92-92-124-33.5q-57 0-105 22t-83.5 59.5-55 86-19.5 101.5q0 73 34 131t91 92 126 34zm43-445q19 0 42 10t40.5 35 17.5 69q0 35-13.5 77.5t-37 82-55 65-68.5 25.5q-41 0-71-30.5t-30-83.5q0-34 13.5-77t37-82.5 55.5-65 69-25.5z"/><path transform="translate(19.152 14.644) scale(.014 -.014)" d="m578 202q0-26 3.5-51.5t16-43 39.5-20.5q8-1 9.5-4.5t1.5-8.5v-33q0-14-14-14-49 0-81.5-5.5t-56-14-46.5-18.5q-4-2-8-2h-2q-2 0-2 3t3.5 30.5 12.5 95.5q-14-28-39-58t-60.5-50.5-81.5-20.5q-54 0-87.5 16.5t-51.5 44-24.5 62-6.5 70.5v165q0 41-18.5 68t-55.5 27h-4q-15 0-15 15v30q0 15 15 15h203q15 0 15-15v-311q0-27 5-49.5t20.5-36 46.5-13.5q25 0 50 12.5t44.5 32 27.5 40.5v185q0 41-18.5 68t-54.5 27h-2q-15 0-15 15v30q0 15 15 15h201q15 0 15-15z"/><path transform="translate(28.378 14.644) scale(.014 -.014)" d="m579 326v-171q0-55 17.5-75t46.5-20h8q15 0 15-15v-30q0-15-15-15h-266q-15 0-15 15v30q0 15 15 15h7q21 0 34 20t13 75v171q0 48-15 73.5t-57 25.5q-25 0-50-12.5t-44-32-28-41.5v-184q0-40 17.5-67.5t46.5-27.5h2q15 0 15-15v-30q0-15-15-15h-281q-15 0-15 15v30q0 15 15 15h2q37 0 55 27.5t18 67.5v126q0 27-3.5 52t-16 42.5-40.5 20.5q-11 1-11 13v34q0 10 14 13 72 11 123.5 34t71.5 37q5 4 8 4h1q2 0 2-2t-1-8l-17-123q14 23 37 49.5t57 46 79 19.5q54 0 88-16t51.5-43 24-60 6.5-68z"/><path transform="translate(37.912 14.644) scale(.014 -.014)" d="m506 530q4 1 8 1 5 0 5-15 0-49-18.5-76t-52.5-27q24-40 24-92 0-53-26.5-96.5t-75.5-69-118-25.5q-70 0-121 28-13-10-13-25t11-25.5 42.5-17 92.5-9.5q44-2 85.5-9t74.5-22.5 52.5-43.5 19.5-73q0-41-21.5-69.5t-58-45.5-80.5-25-89-8q-61 0-112.5 13t-83 40-31.5 69q0 33 17.5 56.5t42.5 37.5q-51 32-51 91 0 34 17.5 58t44.5 35q-59 54-59 136 0 53 26.5 96.5t76 69.5 117.5 26q42 0 76.5-10.5t61.5-28.5q5-3 8.5-3.5t5.5-0.5q8 0 13 5.5t5 20.5v3q0 13 11 15zm-254-77q-38 0-59.5-21t-30-51.5-8.5-59.5 8.5-59.5 30-51.5 59.5-21 57.5 21 26.5 51.5 7 59.5-7 59.5-26.5 51.5-57.5 21zm-4-599q74 0 113.5 14t39.5 37q0 32-42 42.5t-118 14.5q-54 3-93 12-28-19-28-53 0-15 11-30.5t39-26 78-10.5z"/><path transform="translate(48.72 14.644) scale(.014 -.014)" d="m619 523q-3-1-6-2.5t-6-1.5q-8 0-17 12-64 80-126 115t-128 35q-40 0-68.5-21t-28.5-66q0-37 23-61t59.5-39.5 74.5-26.5q57-16 112.5-36t100.5-47.5 72-67 27-95.5q0-68-34.5-121t-99.5-83-157-30q-45 0-84.5 11.5t-76.5 29.5q-8 4-15 4-9 0-9-10 0-3 2-11 3-7 3-12 0-11-17-11h-50q-18 0-25 14l-121 227q-4 8-4 12 0 11 11 17l44 25q3 2 6 3t6 1q10 0 17-12 68-103 150.5-153t168.5-50q65 0 100 29.5t35 74.5q0 44-22 69t-68 42-118 38q-49 14-97 34t-87 48.5-62.5 68-23.5 93.5q0 66 33.5 109t90.5 63.5 129 20.5q56 0 95-14t60-26q17-10 23-10 5 0 5 6 0 5-2.5 14t-2.5 19q0 15 18 15h36q18 0 25-17l70-179q2-4 3-7.5t1-6.5q0-9-11-15z"/><path transform="translate(58.842 14.644) scale(.014 -.014)" d="m175 179q17-42 54.5-75t95.5-33q32 0 67 18t61 56q3 5 8 5t10.5-3 29.5-17q4-3 4-8 0-7-6-17-28-52-76-85t-125-33q-83 0-143 37t-92.5 98-32.5 133q0 69 20.5 118.5t54.5 80 76.5 45 86.5 14.5q50 0 88-19.5t64.5-49.5 40-63.5 13.5-62.5q0-8-9-12zm149 143q0 48-23 79t-58 31q-41 0-65-32.5t-24-81.5q0-15 1.5-37t7.5-40z"/><path transform="translate(66.052 14.644) scale(.014 -.014)" d="m231 395q27 58 75 88t101 30q47 0 80-26t33-77q0-22-4-39t-22-25l-94-38q-6-2-9-2-9 0-9 9 0 3 2 9 6 14 7.5 27t1.5 23q0 27-13.5 39.5t-33.5 12.5q-23 0-43-14t-35-34-22-39v-184q0-40 18-67.5t55-27.5h2q15 0 15-15v-30q0-15-15-15h-291q-15 0-15 15v30q0 15 15 15h2q37 0 55 27.5t18 67.5v126q0 27-3.5 52t-15.5 42.5-40 20.5q-12 1-12 13v34q0 10 15 13 71 11 124.5 35t72.5 38q3 2 5 2h2q2 0 2-2 0-1-2.5-15t-6-35.5-8-44-7.5-39.5z"/><path transform="translate(73.472 14.644) scale(.014 -.014)" d="m317 60q15 0 15-15v-30q0-15-17-15h-283q-17 0-17 15v30q0 15 15 15h2q37 0 54.5 27.5t17.5 67.5v106q0 23-3.5 46t-15.5 40-40 20q-12 1-12 13v34q0 6 4 8.5t11 4.5q79 26 121.5 53.5t62.5 48.5q2 2 4 2h3q2 0 2-2v-373q0-40 18-68t55-28zm-143 680q26 0 51-25t25-50-25-50-51-25q-24 0-50 25-25 24-25 50 0 25 25 50t50 25z"/><path transform="translate(78.33 14.644) scale(.014 -.014)" d="m109 508q0 45 11 95.5t36.5 95 69 73 109.5 28.5q80 0 118.5-30.5t38.5-75.5q0-26-10-50-3-7-8.5-12t-16.5-7q-18-4-42.5-9.5t-44-9.5-22.5-4q-6 0-6 9 0 5 3 11 19 38 19 66t-14.5 42.5-32.5 14.5q-24 0-42-22-19-22-25.5-61t-6.5-96v-66h134q15 0 15-15v-43q0-15-15-15h-134v-272q0-40 18.5-67.5t55.5-27.5q15 0 15-15v-30q0-15-15-15h-282q-15 0-15 15v30q0 15 15 15 37 0 55 27.5t18 67.5v171q0 27-3 53.5t-18.5 43.5-51.5 17q-15 0-15 15v30q0 15 15 15h74z"/></svg>

<?xml version="1.0" encoding="utf-8" ?>
<svg baseProfile="tiny" height="100%" version="1.2" width="100%" xmlns="http://www.w3.org/2000/svg" xmlns:ev="http://www.w3.org/2001/xml-events" xmlns:xlink="http://www.w3.org/1999/xlink"><defs /><g><path d="M769 750Q784 750 784 735V705Q784 690 769 690Q736 690 704.5 667.0Q673 644 644 594L490 333Q485 326 485 314V155Q485 115 499.5 87.5Q514 60 552 60H559Q574 60 574 45V15Q574 0 559 0H251Q236 0 236 15V45Q236 60 251 60H257Q295 60 310.0 87.5Q325 115 325 155V309Q325 318 319 327L139 594Q105 644 81.0 667.0Q57 690 25 690Q10 690 10 705V735Q10 750 25 750H372Q387 750 387 735V705Q387 690 372 690Q345 690 323.5 679.5Q302 669 302 643Q302 622 319 594L436 407L544 594Q566 634 566 657Q566 690 520 690Q505 690 505 705V735Q505 750 520 750Z" transform="translate(0.0, 72) scale(0.072, -0.072)" /><path d="M281 513Q338 513 386.5 490.5Q435 468 470.0 429.5Q505 391 524.5 343.5Q544 296 544 245Q544 171 509.0 112.5Q474 54 417.0 20.5Q360 -13 293 -13Q236 -13 188.0 9.0Q140 31 104.5 68.5Q69 106 49.5 154.5Q30 203 30 256Q30 329 64.0 387.0Q98 445 155.0 479.0Q212 513 281 513ZM324 68Q343 68 366.0 78.0Q389 88 406.5 113.0Q424 138 424 182Q424 217 410.5 259.5Q397 302 373.5 341.5Q350 381 318.5 406.5Q287 432 250 432Q209 432 179.0 401.5Q149 371 149 318Q149 284 162.5 241.0Q176 198 199.5 158.5Q223 119 255.0 93.5Q287 68 324 68Z" transform="translate(57.16799999999999, 72) scale(0.072, -0.072)" /><path d="M578 202Q578 176 581.5 150.5Q585 125 597.5 107.5Q610 90 637 87Q645 86 646.5 82.5Q648 79 648 74V41Q648 27 634 27Q585 27 552.5 21.5Q520 16 496.5 7.5Q473 -1 450 -11Q446 -13 442 -13H440Q438 -13 438 -10Q438 -7 441.5 20.5Q445 48 454 116Q440 88 415.0 58.0Q390 28 354.5 7.5Q319 -13 273 -13Q219 -13 185.5 3.5Q152 20 134.0 47.5Q116 75 109.5 109.5Q103 144 103 180V345Q103 386 84.5 413.0Q66 440 29 440H25Q10 440 10 455V485Q10 500 25 500H228Q243 500 243 485V174Q243 147 248.0 124.5Q253 102 268.5 88.5Q284 75 315 75Q340 75 365.0 87.5Q390 100 409.5 119.5Q429 139 437 160V345Q437 386 418.5 413.0Q400 440 364 440H362Q347 440 347 455V485Q347 500 362 500H563Q578 500 578 485Z" transform="translate(98.49599999999998, 72) scale(0.072, -0.072)" /><path d="M579 326V155Q579 100 596.5 80.0Q614 60 643 60H651Q666 60 666 45V15Q666 0 651 0H385Q370 0 370 15V45Q370 60 385 60H392Q413 60 426.0 80.0Q439 100 439 155V326Q439 374 424.0 399.5Q409 425 367 425Q342 425 317.0 412.5Q292 400 273.0 380.5Q254 361 245 339V155Q245 115 262.5 87.5Q280 60 309 60H311Q326 60 326 45V15Q326 0 311 0H30Q15 0 15 15V45Q15 60 30 60H32Q69 60 87.0 87.5Q105 115 105 155V281Q105 308 101.5 333.0Q98 358 85.5 375.5Q73 393 45 396Q34 397 34 409V443Q34 453 48 456Q120 467 171.5 490.0Q223 513 243 527Q248 531 251 531H252Q254 531 254 529Q254 527 253 521L236 398Q250 421 273.0 447.5Q296 474 330.0 493.5Q364 513 409 513Q463 513 497.0 497.0Q531 481 548.5 454.0Q566 427 572.5 394.0Q579 361 579 326Z" transform="translate(145.94399999999996, 72) scale(0.072, -0.072)" /><path d="M506 530Q510 531 514 531Q519 531 519 516Q519 467 500.5 440.0Q482 413 448 413Q472 373 472 321Q472 268 445.5 224.5Q419 181 370.0 155.5Q321 130 252 130Q182 130 131 158Q118 148 118 133Q118 118 129.0 107.5Q140 97 171.5 90.5Q203 84 264 81Q308 79 349.5 72.0Q391 65 424.0 49.5Q457 34 476.5 6.0Q496 -22 496 -67Q496 -108 474.5 -136.5Q453 -165 416.5 -182.0Q380 -199 336.0 -207.0Q292 -215 247 -215Q186 -215 134.5 -202.0Q83 -189 51.5 -162.0Q20 -135 20 -93Q20 -60 37.5 -36.5Q55 -13 80 1Q29 33 29 92Q29 126 46.5 150.0Q64 174 91 185Q32 239 32 321Q32 374 58.5 417.5Q85 461 134.5 487.0Q184 513 252 513Q294 513 328.5 502.5Q363 492 390 474Q395 471 398.5 470.5Q402 470 404 470Q412 470 417.0 475.5Q422 481 422 496V499Q422 512 433 514ZM252 453Q214 453 192.5 432.0Q171 411 162.5 380.5Q154 350 154 321Q154 292 162.5 261.5Q171 231 192.5 210.0Q214 189 252 189Q290 189 309.5 210.0Q329 231 336.0 261.5Q343 292 343 321Q343 350 336.0 380.5Q329 411 309.5 432.0Q290 453 252 453ZM248 -146Q322 -146 361.5 -132.0Q401 -118 401 -95Q401 -63 359.0 -52.5Q317 -42 241 -38Q187 -35 148 -26Q120 -45 120 -79Q120 -94 131.0 -109.5Q142 -125 170.0 -135.5Q198 -146 248 -146Z" transform="translate(194.97599999999994, 72) scale(0.072, -0.072)" /><path d="M619 523Q616 522 613.0 520.5Q610 519 607 519Q599 519 590 531Q526 611 464.0 646.0Q402 681 336 681Q296 681 267.5 660.0Q239 639 239 594Q239 557 262.0 533.0Q285 509 321.5 493.5Q358 478 396 467Q453 451 508.5 431.0Q564 411 609.0 383.5Q654 356 681.0 316.5Q708 277 708 221Q708 153 673.5 100.0Q639 47 574.0 17.0Q509 -13 417 -13Q372 -13 332.5 -1.5Q293 10 256 28Q248 32 241 32Q232 32 232 22Q232 19 234 11Q237 4 237 -1Q237 -12 220 -12H170Q152 -12 145 2L24 229Q20 237 20 241Q20 252 31 258L75 283Q78 285 81.0 286.0Q84 287 87 287Q97 287 104 275Q172 172 254.5 122.0Q337 72 423 72Q488 72 523.0 101.5Q558 131 558 176Q558 220 536.0 245.0Q514 270 468.0 287.0Q422 304 350 325Q301 339 253.0 359.0Q205 379 166.0 407.5Q127 436 103.5 475.5Q80 515 80 569Q80 635 113.5 678.0Q147 721 204.0 741.5Q261 762 333 762Q389 762 428.0 748.0Q467 734 488 722Q505 712 511 712Q516 712 516 718Q516 723 513.5 732.0Q511 741 511 751Q511 766 529 766H565Q583 766 590 749L660 570Q662 566 663.0 562.5Q664 559 664 556Q664 547 653 541Z" transform="translate(250.55999999999995, 72) scale(0.072, -0.072)" /><path d="M175 179Q192 137 229.5 104.0Q267 71 325 71Q357 71 392.0 89.0Q427 107 453 145Q456 150 461 150Q466 150 471.5 147.0Q477 144 501 130Q505 127 505 122Q505 115 499 105Q471 53 423.0 20.0Q375 -13 298 -13Q215 -13 155.0 24.0Q95 61 62.5 122.0Q30 183 30 255Q30 324 50.5 373.5Q71 423 105.0 453.5Q139 484 181.5 498.5Q224 513 268 513Q318 513 356.0 493.5Q394 474 420.5 444.0Q447 414 460.5 380.5Q474 347 474 318Q474 310 465 306ZM324 322Q324 370 301.0 401.0Q278 432 243 432Q202 432 178.0 399.5Q154 367 154 318Q154 303 155.5 281.0Q157 259 163 241Z" transform="translate(302.61599999999993, 72) scale(0.072, -0.072)" /><path d="M231 395Q258 453 306.0 483.0Q354 513 407 513Q454 513 487.0 487.0Q520 461 520 410Q520 388 516.0 371.0Q512 354 494 346L400 308Q394 306 391 306Q382 306 382 315Q382 318 384 324Q390 338 391.5 351.0Q393 364 393 374Q393 401 379.5 413.5Q366 426 346 426Q323 426 303.0 412.0Q283 398 268.0 378.0Q253 358 246 339V155Q246 115 264.0 87.5Q282 60 319 60H321Q336 60 336 45V15Q336 0 321 0H30Q15 0 15 15V45Q15 60 30 60H32Q69 60 87.0 87.5Q105 115 105 155V281Q105 308 101.5 333.0Q98 358 86.0 375.5Q74 393 46 396Q34 397 34 409V443Q34 453 49 456Q120 467 173.5 491.0Q227 515 246 529Q249 531 251 531H253Q255 531 255 529Q255 528 252.5 514.0Q250 500 246.5 478.5Q243 457 238.5 434.5Q234 412 231 395Z" transform="translate(339.6959999999999, 72) scale(0.072, -0.072)" /><path d="M317 60Q332 60 332 45V15Q332 0 315 0H32Q15 0 15 15V45Q15 60 30 60H32Q69 60 86.5 87.5Q104 115 104 155V261Q104 284 100.5 307.0Q97 330 85.0 347.0Q73 364 45 367Q33 368 33 380V414Q33 420 37.0 422.5Q41 425 48 427Q127 453 169.5 480.5Q212 508 232 529Q234 531 236 531H239Q241 531 241 529V156Q241 116 259.0 88.0Q277 60 314 60ZM174 740Q200 740 225 715Q250 690 250 665Q250 640 225 615Q200 590 174 590Q150 590 124 615Q99 639 99 665Q99 690 124 715Q149 740 174 740Z" transform="translate(377.8559999999999, 72) scale(0.072, -0.072)" /><path d="M109 508Q109 553 120.0 603.5Q131 654 156.5 698.5Q182 743 225.5 771.5Q269 800 335 800Q415 800 453.5 769.5Q492 739 492 694Q492 668 482 644Q479 637 473.5 632.0Q468 627 457 625Q439 621 414.5 615.5Q390 610 370.5 606.0Q351 602 348 602Q342 602 342 611Q342 616 345 622Q364 660 364 688Q364 716 349.5 730.5Q335 745 317 745Q293 745 275 723Q256 701 249.5 662.0Q243 623 243 566V500H377Q392 500 392 485V442Q392 427 377 427H243V155Q243 115 261.5 87.5Q280 60 317 60Q332 60 332 45V15Q332 0 317 0H35Q20 0 20 15V45Q20 60 35 60Q72 60 90.0 87.5Q108 115 108 155V326Q108 353 105.0 379.5Q102 406 86.5 423.0Q71 440 35 440Q20 440 20 455V485Q20 500 35 500H109Z" transform="translate(402.83999999999986, 72) scale(0.072, -0.072)" /></g></svg>
